X:391
T:Kinfauns Castle
T:Lady Ann Hope
C:Kerr's First
Z:Terry Traub 10-26-98
S:Colin Hume's website,  colinhume.com  - chords can also be printed below the stave.
Q:1/4=120
M:4/4
L:1/8
K:G
|: D | "G"G<G G>B "Am"A>G E2 | "C"c<c c>e "G"d>c B<g | "G"B<B "(Em)"B>G "Am"c>A "G"B>G | "Am"E>A "D7"G/F/E/D/ "G"{D}G2- G :|
d | "G"g2 d>g B>g d>f | "G"g<g b>g "C"e2 e>f | "G"(3gab "D"(3agf "C"(3efg "G"(3dcB | "C"(3cde "D"(3def "G"(3ged "D"(3cBA |
"G"G<gd>g B>g d>f | "Em"g<g b>g "C"e2 e>f | "G"(3gab "D"(3agf "Em"(3gfe "Bm"(3dcB | "Am"(3cde "D"(3def "G"g2 g<b |]

